icon_installer/data/icons/scalable/actions/show-no-bluetooth-symbolic.svg

<?xml version="1.0" encoding="UTF-8"?>
<svg height="16px" viewBox="0 0 16 16" width="16px" xmlns="http://www.w3.org/2000/svg">
    <g fill="#222222">
        <path d="m 6 0 v 4.585938 l -1.292969 -1.292969 c -0.1875 -0.1875 -0.441406 -0.292969 -0.707031 -0.292969 h -1 v 1 c 0 0.265625 0.105469 0.519531 0.292969 0.707031 l 2.707031 2.707031 v 1.171876 l -2.707031 2.707031 c -0.1875 0.1875 -0.292969 0.441406 -0.292969 0.707031 v 1 h 0.96875 h 0.03125 c 0.265625 0 0.519531 -0.105469 0.707031 -0.292969 l 1.292969 -1.292969 v 4.585938 h 1 c 0.265625 0 0.519531 -0.105469 0.707031 -0.292969 l 2.566407 -2.566406 c -0.167969 -0.183594 -0.261719 -0.421875 -0.261719 -0.671875 v -1.46875 c 0 -0.546875 0.441406 -0.988281 0.988281 -0.988281 h 0.425781 l -2.011719 -2.011719 l 2.292969 -2.292969 c 0.390625 -0.390625 0.390625 -1.023437 0 -1.414062 l -4 -4 c -0.179687 -0.179688 -0.421875 -0.2851565 -0.675781 -0.292969 c -0.011719 0 -0.019531 0 -0.03125 0 z m 2 3.414062 l 1.585938 1.585938 l -1.585938 1.585938 z m 0 6 l 1.585938 1.585938 l -1.585938 1.585938 z m 0 0" fill-opacity="0.34902"/>
        <path d="m 11 11 h 1.375 l 1.125 1.09375 l 1.09375 -1.09375 h 1.40625 v 1.46875 l -1.09375 1.0625 l 1.09375 1.0625 v 1.40625 h -1.4375 l -1.0625 -1.0625 l -1.0625 1.0625 h -1.4375 v -1.40625 l 1.0625 -1.0625 l -1.0625 -1.0625 z m 0 0"/>
    </g>
</svg>

<svg xmlns="http://www.w3.org/2000/svg" width="16" height="16"><g fill="#222"><path fill-opacity=".349" d="M6 0v4.586L4.707 3.293A1 1 0 0 0 4 3H3v1a1 1 0 0 0 .293.707L6 7.414v1.172l-2.707 2.707A1 1 0 0 0 3 12v1h1a1 1 0 0 0 .707-.293L6 11.414V16h1a1 1 0 0 0 .707-.293l2.566-2.566a.993.993 0 0 1-.261-.672V11c0-.547.441-.988.988-.988h.426L9.414 8l2.293-2.293a1 1 0 0 0 0-1.414l-4-4A1.001 1.001 0 0 0 7.031 0H7zm2 3.414L9.586 5 8 6.586zm0 6L9.586 11 8 12.586zm0 0"/><path d="M11 11h1.375l1.125 1.094L14.594 11H16v1.469l-1.094 1.062L16 14.594V16h-1.438L13.5 14.937 12.437 16H11v-1.406l1.063-1.063L11 12.47zm0 0"/></g></svg>
